X:1
T:Holdeman, LM
T:Holdeman, LM
T:Christmas Carols New and Old, ca.1878
T:Public Domain Courtesy of the Cyber Hymnal™
C:Christmas Carols New and Old, ca.1878
Z:Public Domain
Z:Courtesy of the Cyber Hymnal™
%%score ( 1 2 ) ( 3 4 )
L:1/8
Q:1/4=110
M:4/4
K:G
V:1 treble 
V:2 treble 
V:3 bass 
V:4 bass 
V:1
 [B,G]2 | [DA]2 [DA]2 [DG]2 [CE]2 | [B,D]2 [CE]2 [DG]2 [GB]2 | [Fd]2 [Ge]2 [Gd]2 (BA) | %4
 [EG]2 E2 [DG]4- | [DG]2 [GB]2 [GB]2 [EA]2 | [^DB]2 [EG]2 [EA]2 A2 | [B,B]2 [DG]2 [CE]2 D2 | %8
 E3 z F [B,G]2 [EG]2 | [DG]6 |] %10
V:2
 x2 | x8 | x8 | x6 F2 | x2 E2 x4 | x8 | x6 (=DC) | x6 D2 | C2 C2 x5 | x6 |] %10
V:3
 G,2 | G,2 z [B,,G,]2 [C,G,]2 x | G,2 [G,C]2 [G,B,]2 [E,G,]2 | [D,A,]2 [C,C]2 [B,,D]2 (DC) | %4
 [E,B,]2 [C,C]2 [G,B,]4- | [G,B,]2 [E,B,]2 [C,E,]2 [C,A,]2 | [B,,F,]2 [E,G,]2 [C,G,]2 [D,F,]2 | %7
 [G,,G,]2 [B,,G,]2 [C,G,]2 [B,,G,]2 | [C,G,]2 [A,,A,]2 [E,G,]2 [C,C]2 x | [G,B,]6 |] %10
V:4
 G,2 | D,3 (F,2 C,) x2 | G,2 x6 | x6 D,2 | x8 | x8 | x8 | x8 | x9 | x6 |] %10

